T: Barren Rocks Of Aden, The
M: 2/4
L: 1/8
K: Dmaj
|:e|f>g fe|df Ad|ce Ae|fA de|f>g fe|df Ad|ce Af/e/|d2 d:||:f/g/|a>f df|eg Ae/f/|g>e ce|df Af/g/|a>f df|eg Ae/f/|g>e ce|d2 d:||:f/g/|a/f/d/f/ a/f/d/f/|eg Ae/f/|g/e/c/e/ g/e/c/e/|df Af/g/|a/f/d/f/ a/f/d/f/|eg Ae/f/|g>e ce|d2 d:|
